X: 123
T: Ay Gülsün Ufuktan
C: İsmail Baha Sürelsan
O: Turkey
F: http://compmusic.upf.edu/node/140
N: rast--sarki--aksak--ay_gulsun--ismail_baha_surelsan
N: makam= rast
N: form= sarki
N: usul= aksak = 9/8
M: 9/8
L: 1/16
K: C _1/4B ^f  
Q: 1/4=234
%%MIDI tuningsystem comma53
G4 G2B2 d2B2 d2c2 A2 | c3BA2 B2F2 A2G4z2  | \
w:  ARANAĞME  |   | 
d4 d2d2 ^c2e2 d2e2 f2 | 
w:   | 
b3ag2 f2e2 f2d4z2  | g4 g2g2 g2e2 d2B2 c2 | \
w:   |   | 
d4.A2 .A2.A2 .A2e4z2  | 
w:   | 
d3c B2A2 c2B2 A2G2 F2 | G16z2  | G4 G2B2 d2B2 d2c2 A2 | \
w:   |   |  ARANAĞME  | 
c3BA2 B2F2 A2G4z2  | 
w:   | 
d4 d2d2 ^c2e2 d2e2 f2 | b3ag2 f2e2 f2d4z2  | \
w:   |   | 
g4 g2g2 g2e2 d2B2 c2 | 
w:   | 
d4.A2 .A2.A2 .A2e4z2  | d3c B2A2 c2B2 A2G2 F2 | \
w:   |   | 
G16z2  | G4 B4 d2c2 A6 | 
w:   |  Ay gül sün u fuk  | 
d4^c2 e2d8z2  | g4 f2a2 g2e2 g2^1/4f2 e2 | \
w:  tan sa na sen  |  bak o na gül  | 
d16z2  | G4 B4 d2c2 A6 | d4^c2 e2d8z2  | 
w:  de  |  Ay gül sün u fuk  |  tan sa na sen  | 
g4 f2a2 g2e2 g2^1/4f2 e2 | d16z2  | d4 d4 d2d2 g6 | \
w:  bak o na gül  |  de  |  Meh ta bı ge zin  | 
f4e2 f2d8z2  | c4 e2e2 e2d2 e2c2 d2 | 
w:  dir yi ne bin  |  ler ce gö nül  | 
B16z2  | A4 c4 B2B2 d4 z2 | A4A2 A2e8-e2  | \
w:  de  |  Meh ta bı ge zin  |  dir yi ne bin  | 
d3c B2A2 c2B2 A2G2 F2 | 
w:  ler *  ce gö nül  | 
G16z2  | g4 e4 B2d2 f4 z2 | f4g2 f2e4=b6  | \
w:  de  |  Dön kıv rı la rak  |  dön gü ze lim  | 
a4 c'2c'2 c'2b2 a2g2 f2 | 
w:  in ce be lin  | 
g16z2  | =b4 g4 e2e2 a4 z2 | f4e2 d2^c8d2  | \
w:  le  |  Dön kıv rı la rak  |  dön gü ze lim  | 
d4 f2a2 g2e2 g2^1/4f2 e2 | 
w:  in ce be lin  | 
d16z2  | d4 d4 d2d2 g6 | f4e2 f2d8z2  | \
w:  le  |  Meh ta bı ge zin  |  dir yi ne bin  | 
c4 e2e2 e2d2 e2c2 d2 | B16z2  | 
w:  ler ce gö nül  |  de  | 
A4 c4 B2B2 d4 z2 | A4A2 A2e8-e2  | d3c B2A2 c2B2 A2G2 F2 | \
w:  Meh ta bı ge zin  |  dir yi ne bin  |  ler *  ce gö nül  | 
G16z2  | 
w:  de  | 
|


